app/images/no-candidate.svg

<svg fill="none" height="52" viewBox="0 0 51 52" width="51" xmlns="http://www.w3.org/2000/svg" xmlns:xlink="http://www.w3.org/1999/xlink"><filter id="a" color-interpolation-filters="sRGB" filterUnits="userSpaceOnUse" height="51" width="51" x="0" y="0"><feFlood flood-opacity="0" result="BackgroundImageFix"/><feBlend in="SourceGraphic" in2="BackgroundImageFix" mode="normal" result="shape"/><feColorMatrix in="SourceAlpha" result="hardAlpha" type="matrix" values="0 0 0 0 0 0 0 0 0 0 0 0 0 0 0 0 0 0 127 0"/><feOffset/><feGaussianBlur stdDeviation="6"/><feComposite in2="hardAlpha" k2="-1" k3="1" operator="arithmetic"/><feColorMatrix type="matrix" values="0 0 0 0 1 0 0 0 0 1 0 0 0 0 1 0 0 0 0.25 0"/><feBlend in2="shape" mode="normal" result="effect1_innerShadow"/></filter><filter id="b" color-interpolation-filters="sRGB" filterUnits="userSpaceOnUse" height="51" width="51" x="0" y="0"><feFlood flood-opacity="0" result="BackgroundImageFix"/><feBlend in="SourceGraphic" in2="BackgroundImageFix" mode="normal" result="shape"/><feColorMatrix in="SourceAlpha" result="hardAlpha" type="matrix" values="0 0 0 0 0 0 0 0 0 0 0 0 0 0 0 0 0 0 127 0"/><feOffset/><feGaussianBlur stdDeviation="6"/><feComposite in2="hardAlpha" k2="-1" k3="1" operator="arithmetic"/><feColorMatrix type="matrix" values="0 0 0 0 1 0 0 0 0 1 0 0 0 0 1 0 0 0 0.25 0"/><feBlend in2="shape" mode="normal" result="effect1_innerShadow"/></filter><linearGradient id="c" gradientUnits="userSpaceOnUse" x1="20.4566" x2="22.741" y1="11.2854" y2="42.473"><stop offset="0" stop-color="#fbfbfb"/><stop offset="1" stop-color="#fff"/></linearGradient><g filter="url(#a)"><circle fill="#919191" r="25.5" transform="matrix(-1 0 0 1 25.5 25.5)"/></g><path d="m19.8508 11.4869v.0001l.0001-.0002c.0248-.2288.1646-.4505.3751-.6555.2105-.2049.4917-.393.7991-.5545.6148-.32302 1.3346-.53947 1.8043-.57088l.2624-.01754c2.3062-.1551 4.537-.30512 7.0211 1.41762 1.7891 1.2408 3.3004 3.0233 4.342 4.8368 2.1096 3.6622 2.2284 7.2205 2.3592 11.138v.0001c.0475 1.4228.0966 2.893.2432 4.4327.0056.0597.0105.1173.0153.1729v.0006c.0426.4959.0721.8394.4393 1.2432-.1274.1949-.2434.3647-.3478.5176l-.0001.0001v.0001c-.3367.493-.5529.8096-.6456 1.2187-.0926.4091-.0617.9106.096 1.7735.1592.8806.3535 1.4757.627 2.0112.2735.5356.6261 1.0115 1.102 1.6536l.0016.0023c.0651.0878.1325.1787.2023.2734-.1816.1848-.2876.3719-.3301.5594s-.0216.3755.0504.5624c.1439.3738.4922.7429.9458 1.0945.9074.703 2.2367 1.3354 3.1976 1.7926l.1873.0892c-4.5243 4.096-10.525 6.5909-17.1086 6.5909-6.264 0-12.0004-2.2586-16.4394-6.0059.14467-.0832.28989-.166.43526-.2489.72854-.4156 1.46084-.8333 2.14574-1.3088.6597-.4564 1.0813-.9144 1.372-1.4429.2906-.5286.4503-1.1278.586-1.8668.1272-.696.2439-1.4275.1992-2.1153s-.2508-1.332-.7693-1.8535c.4387-1.3048.3756-2.7662.3121-4.2368v-.0001c-.0367-.85-.0735-1.7031-.0137-2.531.1692-2.3778.4607-4.7955.845-7.1565.6917-4.275 1.9286-8.4309 5.6882-10.8164z" fill="url(#c)" opacity=".7" stroke="#fff" stroke-width=".000285"/><g filter="url(#b)" opacity=".2"><circle r="23.5" stroke="#fff" stroke-width="4" transform="matrix(-1 0 0 1 25.5 25.5)"/></g></svg>

<svg width="51" height="52" viewBox="0 0 51 52" fill="none" xmlns="http://www.w3.org/2000/svg">
<g filter="url(#filter0_i)">
<circle r="25.5" transform="matrix(-1 0 0 1 25.5 25.5)" fill="#919191"/>
</g>
<path opacity="0.7" d="M19.8508 11.4869L19.8508 11.487L19.8509 11.4868C19.8757 11.258 20.0155 11.0363 20.226 10.8313C20.4365 10.6264 20.7177 10.4383 21.0251 10.2768C21.6399 9.95378 22.3597 9.73733 22.8294 9.70592L23.0918 9.68838C25.398 9.53328 27.6288 9.38326 30.1129 11.106C31.902 12.3468 33.4133 14.1293 34.4549 15.9428C36.5645 19.605 36.6833 23.1633 36.8141 27.0808L36.8141 27.0809C36.8616 28.5037 36.9107 29.9739 37.0573 31.5136C37.0629 31.5733 37.0678 31.6309 37.0726 31.6865L37.0726 31.6871C37.1152 32.183 37.1447 32.5265 37.5119 32.9303C37.3845 33.1252 37.2685 33.295 37.1641 33.4479L37.164 33.448L37.164 33.4481C36.8273 33.9411 36.6111 34.2577 36.5184 34.6668C36.4258 35.0759 36.4567 35.5774 36.6144 36.4403C36.7736 37.3209 36.9679 37.916 37.2414 38.4515C37.5149 38.9871 37.8675 39.463 38.3434 40.1051L38.3434 40.1051L38.345 40.1074C38.4101 40.1952 38.4775 40.2861 38.5473 40.3808C38.3657 40.5656 38.2597 40.7527 38.2172 40.9402C38.1747 41.1277 38.1956 41.3157 38.2676 41.5026C38.4115 41.8764 38.7598 42.2455 39.2134 42.5971C40.1208 43.3001 41.4501 43.9325 42.411 44.3897L42.5983 44.4789C38.074 48.5749 32.0733 51.0698 25.4897 51.0698C19.2257 51.0698 13.4893 48.8112 9.0503 45.0639C9.19497 44.9807 9.34019 44.8979 9.48556 44.815C10.2141 44.3994 10.9464 43.9817 11.6313 43.5062C12.291 43.0498 12.7126 42.5918 13.0033 42.0633C13.2939 41.5347 13.4536 40.9355 13.5893 40.1965C13.7165 39.5005 13.8332 38.769 13.7885 38.0812C13.7438 37.3934 13.5377 36.7492 13.0192 36.2277C13.4579 34.9229 13.3948 33.4615 13.3313 31.9909L13.3313 31.9908C13.2946 31.1408 13.2578 30.2877 13.3176 29.4598C13.4868 27.082 13.7783 24.6643 14.1626 22.3033C14.8543 18.0283 16.0912 13.8724 19.8508 11.4869Z" fill="url(#paint0_linear)" stroke="white" stroke-width="0.000284981"/>
<g opacity="0.2" filter="url(#filter1_i)">
<circle r="23.5" transform="matrix(-1 0 0 1 25.5 25.5)" stroke="white" stroke-width="4"/>
</g>
<defs>
<filter id="filter0_i" x="0" y="0" width="51" height="51" filterUnits="userSpaceOnUse" color-interpolation-filters="sRGB">
<feFlood flood-opacity="0" result="BackgroundImageFix"/>
<feBlend mode="normal" in="SourceGraphic" in2="BackgroundImageFix" result="shape"/>
<feColorMatrix in="SourceAlpha" type="matrix" values="0 0 0 0 0 0 0 0 0 0 0 0 0 0 0 0 0 0 127 0" result="hardAlpha"/>
<feOffset/>
<feGaussianBlur stdDeviation="6"/>
<feComposite in2="hardAlpha" operator="arithmetic" k2="-1" k3="1"/>
<feColorMatrix type="matrix" values="0 0 0 0 1 0 0 0 0 1 0 0 0 0 1 0 0 0 0.25 0"/>
<feBlend mode="normal" in2="shape" result="effect1_innerShadow"/>
</filter>
<filter id="filter1_i" x="0" y="0" width="51" height="51" filterUnits="userSpaceOnUse" color-interpolation-filters="sRGB">
<feFlood flood-opacity="0" result="BackgroundImageFix"/>
<feBlend mode="normal" in="SourceGraphic" in2="BackgroundImageFix" result="shape"/>
<feColorMatrix in="SourceAlpha" type="matrix" values="0 0 0 0 0 0 0 0 0 0 0 0 0 0 0 0 0 0 127 0" result="hardAlpha"/>
<feOffset/>
<feGaussianBlur stdDeviation="6"/>
<feComposite in2="hardAlpha" operator="arithmetic" k2="-1" k3="1"/>
<feColorMatrix type="matrix" values="0 0 0 0 1 0 0 0 0 1 0 0 0 0 1 0 0 0 0.25 0"/>
<feBlend mode="normal" in2="shape" result="effect1_innerShadow"/>
</filter>
<linearGradient id="paint0_linear" x1="20.4566" y1="11.2854" x2="22.741" y2="42.473" gradientUnits="userSpaceOnUse">
<stop stop-color="#FBFBFB"/>
<stop offset="1" stop-color="white"/>
</linearGradient>
</defs>
</svg>
